X:103
T: Sandmount
T: Mick Hand's
Z: Piano Box Version by Martin Fleischmann
H: Created 2013-02-19 /  Last Modified 2015-03-04
M: 4/4
L: 1/8
R: reel
K: Ador
|:"am"ezAG ABAG | "G"EGDG EGDG | "am"EAAG A2 (3Bcd |1 "em"egfa gedB:|2 "em"egfa gedg|
"am"eaag a2ba | "G"gede gedg | "am"eaag aaga | "em"bagb aaag |
"am"eaag a2ba | "G"gedB dega | bgaf gfed | eeed e4 ||
| "alt""G"gedb dega |

